public/tiktok.svg

<svg xmlns="http://www.w3.org/2000/svg"  viewBox="0 0 50 50" width="48px"  fill='#fff' height="48px" stroke-linecap="round" stroke-linejoin="round"><path d="M 9 4 C 6.2495759 4 4 6.2495759 4 9 L 4 41 C 4 43.750424 6.2495759 46 9 46 L 41 46 C 43.750424 46 46 43.750424 46 41 L 46 9 C 46 6.2495759 43.750424 4 41 4 L 9 4 z M 9 6 L 41 6 C 42.671576 6 44 7.3284241 44 9 L 44 41 C 44 42.671576 42.671576 44 41 44 L 9 44 C 7.3284241 44 6 42.671576 6 41 L 6 9 C 6 7.3284241 7.3284241 6 9 6 z M 26.042969 10 A 1.0001 1.0001 0 0 0 25.042969 10.998047 C 25.042969 10.998047 25.031984 15.873262 25.021484 20.759766 C 25.016184 23.203017 25.009799 25.64879 25.005859 27.490234 C 25.001922 29.331679 25 30.496833 25 30.59375 C 25 32.409009 23.351421 33.892578 21.472656 33.892578 C 19.608867 33.892578 18.121094 32.402853 18.121094 30.539062 C 18.121094 28.675273 19.608867 27.1875 21.472656 27.1875 C 21.535796 27.1875 21.663054 27.208245 21.880859 27.234375 A 1.0001 1.0001 0 0 0 23 26.240234 L 23 22.039062 A 1.0001 1.0001 0 0 0 22.0625 21.041016 C 21.906673 21.031216 21.710581 21.011719 21.472656 21.011719 C 16.223131 21.011719 11.945313 25.289537 11.945312 30.539062 C 11.945312 35.788589 16.223131 40.066406 21.472656 40.066406 C 26.72204 40.066409 31 35.788588 31 30.539062 L 31 21.490234 C 32.454611 22.653646 34.267517 23.390625 36.269531 23.390625 C 36.542588 23.390625 36.802305 23.374442 37.050781 23.351562 A 1.0001 1.0001 0 0 0 37.958984 22.355469 L 37.958984 17.685547 A 1.0001 1.0001 0 0 0 37.03125 16.6875 C 33.886609 16.461891 31.379838 14.012216 31.052734 10.896484 A 1.0001 1.0001 0 0 0 30.058594 10 L 26.042969 10 z M 27.041016 12 L 29.322266 12 C 30.049047 15.2987 32.626734 17.814404 35.958984 18.445312 L 35.958984 21.310547 C 33.820114 21.201935 31.941489 20.134948 30.835938 18.453125 A 1.0001 1.0001 0 0 0 29 19.003906 L 29 30.539062 C 29 34.707538 25.641273 38.066406 21.472656 38.066406 C 17.304181 38.066406 13.945312 34.707538 13.945312 30.539062 C 13.945312 26.538539 17.066083 23.363182 21 23.107422 L 21 25.283203 C 18.286416 25.535721 16.121094 27.762246 16.121094 30.539062 C 16.121094 33.483274 18.528445 35.892578 21.472656 35.892578 C 24.401892 35.892578 27 33.586491 27 30.59375 C 27 30.64267 27.001859 29.335571 27.005859 27.494141 C 27.009759 25.65271 27.016224 23.20692 27.021484 20.763672 C 27.030884 16.376775 27.039186 12.849206 27.041016 12 z"/></svg>

<svg xmlns="http://www.w3.org/2000/svg" viewBox="0 0 50 50" width="48" fill="#fff" height="48" stroke-linecap="round" stroke-linejoin="round" xmlns:v="https://vecta.io/nano"><path d="M9 4C6.25 4 4 6.25 4 9v32c0 2.75 2.25 5 5 5h32c2.75 0 5-2.25 5-5V9c0-2.75-2.25-5-5-5H9zm0 2h32a2.98 2.98 0 0 1 3 3v32a2.98 2.98 0 0 1-3 3H9a2.98 2.98 0 0 1-3-3V9a2.98 2.98 0 0 1 3-3zm17.043 4a1 1 0 0 0-1 .998l-.021 9.762-.016 6.73L25 30.594c0 1.815-1.649 3.299-3.527 3.299-1.864 0-3.352-1.49-3.352-3.354s1.488-3.352 3.352-3.352c.063 0 .19.021.408.047A1 1 0 0 0 23 26.24v-4.201a1 1 0 0 0-.937-.998l-.59-.029c-5.25 0-9.527 4.278-9.527 9.527s4.278 9.527 9.527 9.527S31 35.789 31 30.539V21.49c1.455 1.163 3.268 1.9 5.27 1.9a8.47 8.47 0 0 0 .781-.039 1 1 0 0 0 .908-.996v-4.67a1 1 0 0 0-.928-.998 6.48 6.48 0 0 1-5.979-5.791 1 1 0 0 0-.994-.896h-4.016zm.998 2h2.281a8.35 8.35 0 0 0 6.637 6.445v2.865c-2.139-.109-4.017-1.176-5.123-2.857a1 1 0 0 0-1.836.551v11.535c0 4.168-3.359 7.527-7.527 7.527s-7.527-3.359-7.527-7.527c0-4.001 3.121-7.176 7.055-7.432v2.176c-2.714.253-4.879 2.479-4.879 5.256a5.37 5.37 0 0 0 5.352 5.354c2.929 0 5.527-2.306 5.527-5.299 0 .049.002-1.258.006-3.1l.016-6.73.02-8.764z"/></svg>
